public/img/m.svg

<svg width="308" height="196" viewBox="0 0 308 196" fill="none" xmlns="http://www.w3.org/2000/svg">
<path d="M301.862 69.258C307.872 88.8567 307.247 109.765 300.29 128.801C297.851 135.473 289.972 137.842 283.697 134.513L266.014 125.13C259.739 121.8 257.556 114.004 259.102 107.07C263.66 86.62 254.298 64.8326 234.908 54.4959C211.604 42.073 182.643 50.8936 170.22 74.1965C170.196 74.2406 170.142 74.2574 170.098 74.234L141.13 58.863C134.855 55.5333 132.4 47.6804 136.558 41.9209C148.422 25.4881 165.385 13.2495 184.984 7.23942C208.707 -0.0354291 234.348 2.41168 256.267 14.0424C278.186 25.6731 294.587 45.5348 301.862 69.258Z" fill="#F1DA08"/>
<path d="M205.903 116.734C205.729 128.354 203.386 139.794 199.041 150.477C195.948 158.081 186.679 160.284 179.666 156.017L169.183 149.638C162.178 145.376 160.198 136.236 162.275 128.303C163.314 124.332 163.877 120.233 163.94 116.092C164.076 106.972 161.777 97.9797 157.28 90.0445C152.783 82.1092 146.25 75.5187 138.358 70.9539C130.465 66.389 121.498 64.0153 112.383 64.078C103.269 64.1407 94.3369 66.6376 86.5109 71.3106C78.6849 75.9837 72.2484 82.6634 67.8663 90.6598C63.4842 98.6561 61.3156 107.679 61.5844 116.796C61.7065 120.94 62.3301 125.034 63.4289 128.994C65.6207 136.893 63.7747 146.057 56.8355 150.42L46.4542 156.949C39.5044 161.319 30.203 159.252 26.9979 151.694C22.494 141.073 19.9818 129.667 19.6356 118.049C19.1412 101.456 23.0833 85.0331 31.0546 70.4778C39.0259 55.9225 50.7372 43.7626 64.9785 35.2546C79.2198 26.7466 95.4743 22.199 112.063 22.0819C128.651 21.9647 144.971 26.2822 159.337 34.5883C173.703 42.8943 185.593 54.8875 193.78 69.3287C201.966 83.7699 206.151 100.135 205.903 116.734Z" fill="#FBFAF7"/>
</svg>

<svg width="308" height="196" fill="none" xmlns="http://www.w3.org/2000/svg"><path d="M301.862 69.258a93.562 93.562 0 01-1.572 59.543c-2.439 6.672-10.318 9.041-16.593 5.712l-17.683-9.383c-6.275-3.33-8.458-11.126-6.912-18.06 4.558-20.45-4.804-42.237-24.194-52.574-23.304-12.423-52.265-3.602-64.688 19.7a.09.09 0 01-.122.038L141.13 58.863c-6.275-3.33-8.73-11.183-4.572-16.942a93.562 93.562 0 01165.304 27.337z" fill="#F1DA08"/><path d="M205.903 116.734a93.272 93.272 0 01-6.862 33.743c-3.093 7.604-12.362 9.807-19.375 5.54l-10.483-6.379c-7.005-4.262-8.985-13.402-6.908-21.335a51.281 51.281 0 00-4.995-38.258 51.238 51.238 0 00-18.922-19.091 51.18 51.18 0 00-25.975-6.876 51.152 51.152 0 00-25.872 7.233A51.185 51.185 0 0067.866 90.66a51.243 51.243 0 00-4.437 38.334c2.192 7.899.346 17.063-6.593 21.426l-10.382 6.529c-6.95 4.37-16.251 2.303-19.456-5.255a93.298 93.298 0 01-7.362-33.645 93.255 93.255 0 0111.419-47.571 93.145 93.145 0 0133.923-35.223 93.085 93.085 0 0147.085-13.173 93.131 93.131 0 0147.274 12.506 93.248 93.248 0 0134.443 34.74 93.306 93.306 0 0112.123 47.406z" fill="#FBFAF7"/></svg>
